X:1
T:O God which art most merciful
T:Miserere mei Deus. Psal.51.
T:William Byrd (c.1540-1623)
T:O God which art most merciful Miserere mei Deus. Psal.51.
T:© Choral Public Domain Library 2010
T:© Choral Public Domain Library 2010
T:© Choral Public Domain Library 2010
T:© Choral Public Domain Library 2010
C:William Byrd (c.1540-1623)
Z:© Choral Public Domain Library 2010
%%score [ 1 2 3 ]
L:1/8
M:4/4
K:F
V:1 treble nm="Soprano" snm="S."
V:2 treble-8 transpose=-12 nm="Tenor" snm="T."
V:3 treble-8 transpose=-12 nm="Tenor" snm="T."
V:1
 [Cf]2 |[M:4/2] z16 | z16 | z8 B8 | A8 z4 d4 | ^c4 c4 d6 d2 | A16 | z4 B8 A4- | A4 G4 A8 | F8 E8 | %10
w: |||O|God which|art most mer- ci-|ful,|have mer-|* cy Lord|on me,|
 F4 D4 D8 | z4 c8 =B4- | B4 A4 =B8 | G8 ^F4 z2 A2 | F4 G4 A6 D2 | G4 F4 E8 | z8 z4 G4 | %17
w: on _ me,|have mer-|* cy Lord|on me, ac-|cor- ding to thy|mer- cy great,|ac-|
 A4 B4 c6 F2 | B4 A4 G8 | A4 B8 A4 | G4 G4 F8 | D4 F8 E4 | D4 C4 C8- | C8 z8 | z16 | z4 c4 c4 B4 | %26
w: cor- ding to thy|mer- cy great|let me re-|lie- ved be,|let me re-|lie- ved be.|_||And put a-|
 G4 A4 B6 A2 | F8 z4 A4 | c6 =B2 G8 | z4 d4 d4 c4 | A4 =B4 c6 B2 | G4 z2 G2 B4 A4 | D4 G6 FE F4 | %33
w: way my wick- ed-|ness, my|wick- ed- ness,|and put a-|way my wick- ed-|ness, which sun- dry|ways hath _ _ _|
 E8 z8 | z4 G4 B4 A4 | D4 d6 ^c=B c4 | d8 z4 d4 | e4 d4 ^c4 d4- | d4 e8 d4 | ^c8 z4 =c4 | %40
w: been,|which sun- dry|ways hath _ _ _|been, ac-|cor- ding to the|_ mul- ti-|tude, ac-|
 d4 c4 A8 | B4 c8 B4 | A8 z4 A4 | G4 E2 A4 A2 G4 | A8 z8 | z4 B4 A4 D2 G2- | G2 G2 ^F4 G8 | %47
w: cor- ding to|the mul- ti-|tude of|thy com- pas- si- ons|seen,|of thy com- pas-|* si- ons seen,|
 z4 A4 =B4 A4 | z4 d4 e4 d4 | ^c8 d4 e4- | e4 d4 ^c8 | z4 c4 =B4 E2 A2- | A2 A2 ^G4 A8 | %53
w: ac- cor- ding,|ac- cor- ding|to the mul-|* ti- tude|of thy com- pas-|* si- ons seen,|
 z4 f4 e4 A2 d2- | d2 d2 ^c4 d4 B2 d2- | d2 c2 A4 | !fermata!=B16 |] %57
w: of thy com- pas-|* si- ons seen, com- pas-|* si- ons|seen.|
V:2
 [Db]2 |[M:4/2] z16 | f8 e8 | z8 z4 g4 | ^f4 f4 g6 g2 | e8 z4 f4- | f4 d8 c4 | d16 | B8 A4 f4- | %9
w: ||O God|which|art most mer- ci-|ful, have|_ mer- cy|Lord|on me, have|
 f4 d8 ^c4 | d8 B8 | A6 A2 e4 d4 | g6 f2 e2 d2 d4- | d4 ^c4 d4 A4 | d4 e4 f8 | e4 d8 ^c4 | %16
w: _ mer- cy|Lord on|me, have mer- cy|Lord on _ _ _|_ _ me, ac-|cor- ding to|thy mer- cy|
 d4 f4 f4 e4 | f4 d4 c8 | d4 f8 e4 | d4 d4 c8 | z8 a4 b4- | b4 a4 g4 g4 | f8 z4 a4 | a4 g4 e4 f4 | %24
w: great, let me re-|lie- ved be,|let me re-|lie- ved be,|let me|_ re- lie- ved|be. And|put a- way my|
 g6 f2 d4 f4 | f4 e4 c4 d4 | e6 f2 g4 G4 | d6 c2 A4 c4 | e4 d8 ^c4 | d4 f4 f4 e4 | c4 d4 e4 d4- | %31
w: wick- ed- ness, and|put a- way my|wick- ed- ness, my|wick- ed- ness, my|wick- ed- *|ness, and put a-|way my wick- ed-|
 d4 ^c4 d4 z2 d2 | f4 e4 A4 d4- | d2 ^c=B c4 d4 f4- | f2 ed e4 d8 | z4 d4 f4 e4 | d4 g6 ^fe f4 | %37
w: * * ness, which|sun- dry ways hath|_ _ _ _ been, hath|_ _ _ _ been,|which sun- dry|ways hath _ _ _|
 g8 z4 g4 | a4 g4 c4 d4 | e4 f4 e8 | z8 z4 c4 | d4 c4 A4 d4 | f4 e4 c8 | z8 z4 d4 | %44
w: been, ac-|cor- ding to the|mul- ti- tude,|ac-|cor- ding to the|mul- ti- tude|of|
 c4 A2 d4 d2 ^c4 | d8 z4 B4 | A4 D2 d4 d2 ^c4 | d16 | z4 f4 g4 f4 | e4 a4 g6 g2 | c4 f4 e4 A2 e2- | %51
w: thy com- pas- si- ons|seen, of|thy com- pas- si- ons|seen,|ac- cor- ding|to the mul- ti-|tude of thy com- pas-|
 e2 e2 c4 d4 c4 | =B8 A2 d4 d2 | ^c4 d4 z4 f4 | e8 d4 g4- | g2 g2 ^f4 | !fermata!g16 |] %57
w: * si- ons seen, of|thy com- pas- si-|ons seen, of|thy com- pas-|* si- ons|seen.|
V:3
 [Cf]2 |[M:4/2] B8 A8 | z4 d4 ^c4 c4 | d6 d2 G8 | z4 d4 G4 G4 | A6 A2 D8 | z8 z4 F4- | F4 G8 ^F4 | %8
w: |O God|which art most|mer- ci- ful,|which art most|mer- ci- ful,|have|_ mer- cy|
 G8 F4 D4- | D2 E2 F2 G2 A8 | z4 B8 G4- | G4 ^F4 G8 | E4 F4 G6 F2 | E2 D2 E4 D8 | z16 | %15
w: Lord on me,|_ on _ _ me,|have mer-|* cy Lord|on me, on _|_ _ _ me,||
 z4 D4 G4 A4 | B6 F2 A4 G4 | F4 G4 A6 A2 | G4 F4 c6 C2 | F4 G4 E4 F4 | B4 c4 d8 | f8 c6 G2 | %22
w: ac- cor- ding|to thy mer- cy|great, let me re-|lie- ved be, re-|lie- ved be, let|me re- lie-|ved be, re-|
 B4 A4 F8 | z4 c4 c4 B4 | G4 A4 B6 A2 | F4 A8 B4 | c6 B2 G8 | z4 D4 F6 E2 | C4 D4 E6 E2 | %29
w: lie- ved be.|And put a-|way my wick- ed-|ness, my wick-|ed- * ness,|my wick- ed-|ness, my wick- ed-|
 D8 z4 A4 | A4 G4 E4 G4 | E6 E2 D8 | z16 | z4 A4 B4 A4 | D4 G6 ^FE F4 | G4 B4 A6 A2 | B4 G4 d8 | %37
w: ness, and|put a- way my|wick- ed- ness,||which sun- dry|ways hath _ _ _|been, which sun- dry|ways hath been,|
 z4 G4 A4 G4 | ^F4 G4 A4 B4 | A8 A6 A2 | B4 A4 F8 | z8 z4 G4 | d4 c4 A8 | B4 c8 B4 | %44
w: ac- cor- ding|to the mul- ti-|tude, to the|mul- ti- tude,|ac-|cor- ding to|the mul- ti-|
 A2 F4 F2 G4 A4 | D4 G4 ^F4 G4 | D6 D2 E8 | D8 z4 d4 | e4 d4 c4 d4 | A8 =B4 c4- | c4 d4 A8 | %51
w: tude, to the mul- ti-|tude of thy com-|pas- si- ons|seen, ac-|cor- ding to the|mul- * ti-|* * tude,|
 A6 A2 G4 A4 | E8 z4 F4 | E4 D4 ^C3 C D4 | A4 z2 A2 B4 G2 B2- | B2 c2 d4 | !fermata!G16 |] %57
w: to the mul- ti-|tude, of|thy com- pas- si- ons|seen, of thy com- pas-|* si- ons|seen.|

